X:0321
M:C
L:1/8
Q:1/2=76
K:E Minor
g2|e3 d  e2g2|d>edB G2(AB)|c2 BA e2 dB| A3 G D2
g2|edef  g2fe|dcBA  G2 AB |c2 BA e2 dB| A3 G E2 :|
   gfga Tg2fe|dcBA  G2 AB |c2 BA e2 dB|TA3 G E2 :|

